public/images/beraciaga/point_to.svg

<svg width="198" height="59" viewBox="0 0 198 59" fill="none" xmlns="http://www.w3.org/2000/svg">
  <path
    d="M0.946435 56.4258C0.482358 57.112 0.662461 58.0445 1.3487 58.5086C2.03494 58.9727 2.96746 58.7926 3.43153 58.1063L0.946435 56.4258ZM193.185 58.7446C194.001 58.8823 194.775 58.3318 194.913 57.5149L197.158 44.2028C197.295 43.3859 196.745 42.612 195.928 42.4743C195.111 42.3365 194.337 42.8871 194.199 43.704L192.204 55.537L180.371 53.5418C179.554 53.404 178.781 53.9546 178.643 54.7715C178.505 55.5884 179.056 56.3623 179.872 56.5L193.185 58.7446ZM3.43153 58.1063C11.6364 45.9735 25.2825 36.7729 41.8389 30.603C58.3827 24.4377 77.7242 21.3411 97.1534 21.3411C116.582 21.3411 136.036 24.4374 152.803 30.6049C169.582 36.7769 183.568 45.9846 192.212 58.135L194.656 56.3959C185.55 43.5967 170.974 34.0922 153.839 27.7894C136.692 21.4821 116.88 18.3411 97.1534 18.3411C77.427 18.3411 57.7226 21.4821 40.7912 27.7918C23.8724 34.0968 9.61411 43.6086 0.946435 56.4258L3.43153 58.1063Z"
    fill="black" />
  <mask id="path-2-outside-1_26316_292165" maskUnits="userSpaceOnUse" x="71" y="-1" width="51"
    height="45" fill="black">
    <rect fill="white" x="71" y="-1" width="51" height="45" />
    <path fill-rule="evenodd" clip-rule="evenodd"
      d="M111.224 9.13629C107.803 5.30942 97.3886 -0.668405 83.0714 6.00781C65.1692 14.3558 78.2499 38.784 84.3431 39.6838C89.802 40.49 101.448 40.1777 103.814 36.8954C108.031 35.2915 111.736 32.8914 112.112 30.1908C112.731 25.7506 111.023 22.8707 109.059 19.5594C108.628 18.8343 108.186 18.0886 107.753 17.3013C112.066 15.6522 116.385 13.3896 118.311 10.6248C121.07 6.66481 114.866 7.75884 111.419 8.80085C111.369 8.89991 111.305 9.01225 111.224 9.13629Z" />
  </mask>
  <path fill-rule="evenodd" clip-rule="evenodd"
    d="M111.224 9.13629C107.803 5.30942 97.3886 -0.668405 83.0714 6.00781C65.1692 14.3558 78.2499 38.784 84.3431 39.6838C89.802 40.49 101.448 40.1777 103.814 36.8954C108.031 35.2915 111.736 32.8914 112.112 30.1908C112.731 25.7506 111.023 22.8707 109.059 19.5594C108.628 18.8343 108.186 18.0886 107.753 17.3013C112.066 15.6522 116.385 13.3896 118.311 10.6248C121.07 6.66481 114.866 7.75884 111.419 8.80085C111.369 8.89991 111.305 9.01225 111.224 9.13629Z"
    fill="black" />
  <path
    d="M111.224 9.13629L108.988 11.1358L111.599 14.0569L113.738 10.7738L111.224 9.13629ZM83.0714 6.00781L84.3393 8.72673L83.0714 6.00781ZM84.3431 39.6838L84.7814 36.716H84.7814L84.3431 39.6838ZM103.814 36.8954L102.747 34.0914L101.906 34.4113L101.38 35.1414L103.814 36.8954ZM112.112 30.1908L115.083 30.6049V30.6049L112.112 30.1908ZM109.059 19.5594L111.639 18.0289L111.639 18.0289L109.059 19.5594ZM107.753 17.3013L106.682 14.4992L103.465 15.7291L105.124 18.7466L107.753 17.3013ZM118.311 10.6248L115.85 8.91006V8.91006L118.311 10.6248ZM111.419 8.80085L110.551 5.92919L109.309 6.30451L108.732 7.46606L111.419 8.80085ZM113.461 7.13678C109.257 2.43499 97.4498 -4.00708 81.8036 3.28889L84.3393 8.72673C97.3274 2.67027 106.348 8.18384 108.988 11.1358L113.461 7.13678ZM81.8036 3.28889C76.6226 5.70482 73.496 9.408 72.0238 13.6894C70.5847 17.8747 70.8086 22.3586 71.7965 26.3583C72.787 30.368 74.5963 34.1087 76.6079 36.9498C77.6141 38.3709 78.7182 39.6341 79.8612 40.6062C80.9465 41.5291 82.3349 42.4198 83.9048 42.6516L84.7814 36.716C84.828 36.7229 84.4747 36.6533 83.7483 36.0355C83.0796 35.4669 82.302 34.6087 81.5047 33.4827C79.9094 31.2295 78.425 28.1727 77.6214 24.9194C76.8154 21.6561 76.7449 18.4115 77.6977 15.6404C78.6175 12.9656 80.5691 10.4848 84.3393 8.72673L81.8036 3.28889ZM83.9048 42.6516C86.9026 43.0943 91.4274 43.2174 95.536 42.808C97.5941 42.6029 99.6666 42.2532 101.447 41.6891C103.098 41.1663 105.066 40.2888 106.248 38.6495L101.38 35.1414C101.41 35.1004 101.344 35.2062 101.021 35.3933C100.707 35.5745 100.252 35.7739 99.6353 35.9692C98.3963 36.3617 96.7725 36.6551 94.941 36.8376C91.2703 37.2033 87.2425 37.0795 84.7814 36.716L83.9048 42.6516ZM104.88 39.6995C107.149 38.8367 109.412 37.7134 111.216 36.3445C112.933 35.0423 114.73 33.1395 115.083 30.6049L109.141 29.7766C109.118 29.9427 108.874 30.5902 107.59 31.5642C106.394 32.4715 104.696 33.3502 102.747 34.0914L104.88 39.6995ZM115.083 30.6049C115.862 25.0215 113.587 21.3128 111.639 18.0289L106.478 21.0899C108.459 24.4285 109.6 26.4798 109.141 29.7767L115.083 30.6049ZM111.639 18.0289C111.205 17.2982 110.788 16.5936 110.382 15.856L105.124 18.7466C105.585 19.5836 106.052 20.3704 106.478 21.0899L111.639 18.0289ZM115.85 8.91006C115.234 9.79438 114.08 10.7897 112.382 11.8099C110.722 12.8073 108.737 13.7132 106.682 14.4992L108.825 20.1034C111.082 19.2403 113.413 18.1903 115.472 16.953C117.494 15.7383 119.463 14.22 120.773 12.3396L115.85 8.91006ZM112.287 11.6725C113.059 11.439 113.983 11.2041 114.878 11.0404C115.807 10.8704 116.551 10.806 117.025 10.8324C117.264 10.8457 117.286 10.8754 117.178 10.834C117.065 10.7907 116.602 10.5841 116.271 9.99887C115.918 9.37441 115.993 8.81628 116.04 8.63235C116.075 8.49372 116.085 8.57173 115.85 8.91006L120.773 12.3396C121.227 11.6879 121.647 10.9339 121.857 10.1012C122.079 9.22316 122.095 8.10895 121.495 7.04646C120.916 6.02325 120.017 5.49663 119.325 5.23146C118.639 4.96818 117.939 4.87404 117.359 4.84173C115.165 4.71945 112.326 5.39253 110.551 5.92919L112.287 11.6725ZM113.738 10.7738C113.869 10.5719 113.995 10.3579 114.105 10.1356L108.732 7.46606C108.739 7.45248 108.741 7.44906 108.737 7.45608C108.733 7.46284 108.725 7.4771 108.71 7.4988L113.738 10.7738Z"
    fill="#709D27" mask="url(#path-2-outside-1_26316_292165)" />
  <path
    d="M92.9489 23.084H89.4674C88.5474 23.084 87.9815 22.1404 88.2793 21.32L92.9489 23.084ZM92.9489 23.084L91.0565 30.5889C91.0565 30.5889 91.0565 30.5889 91.0565 30.5889C90.8929 31.2377 91.2087 31.8028 91.6787 32.0656C92.1536 32.3312 92.8062 32.2948 93.2449 31.7699L104.256 18.598C104.256 18.598 104.256 18.598 104.256 18.5979C104.933 17.788 104.427 16.4388 103.295 16.4388H99.5343L101.656 10.9723C101.656 10.9723 101.656 10.9723 101.656 10.9723C101.976 10.1479 101.411 9.18066 100.478 9.18066H93.5643H93.5642C93.3015 9.18071 93.0472 9.26469 92.8353 9.41807L93.1284 9.82314L92.8353 9.41807C92.6237 9.57119 92.465 9.78539 92.3764 10.0296C92.3764 10.0296 92.3764 10.0296 92.3764 10.0296L88.2793 21.32L92.9489 23.084Z"
    fill="#9CD1FF" stroke="#4B371F" />
</svg>

<svg width="198" height="59" viewBox="0 0 198 59" fill="none" xmlns="http://www.w3.org/2000/svg"><path d="M.946 56.426a1.5 1.5 0 1 0 2.486 1.68l-2.486-1.68zm192.239 2.319a1.5 1.5 0 0 0 1.728-1.23l2.245-13.312a1.5 1.5 0 0 0-2.959-.499l-1.995 11.833-11.833-1.995a1.5 1.5 0 0 0-.499 2.958l13.313 2.245zM3.432 58.106c8.204-12.133 21.85-21.333 38.407-27.503 16.544-6.165 35.885-9.262 55.314-9.262 19.429 0 38.883 3.096 55.65 9.264 16.779 6.172 30.765 15.38 39.409 27.53l2.444-1.74c-9.106-12.798-23.682-22.303-40.817-28.606-17.147-6.307-36.959-9.448-56.686-9.448-19.726 0-39.43 3.141-56.362 9.45C23.872 34.098 9.614 43.61.946 56.427l2.486 1.68z" fill="#000"/><mask id="a" maskUnits="userSpaceOnUse" x="71" y="-1" width="51" height="45" fill="#000"><path fill="#fff" d="M71-1h51v45H71z"/><path fill-rule="evenodd" clip-rule="evenodd" d="M111.224 9.136C107.803 5.31 97.389-.668 83.071 6.008c-17.902 8.348-4.821 32.776 1.272 33.676 5.459.806 17.105.494 19.471-2.789 4.217-1.604 7.922-4.004 8.298-6.704.619-4.44-1.089-7.32-3.053-10.632a77.111 77.111 0 0 1-1.306-2.258c4.313-1.649 8.632-3.911 10.558-6.676 2.759-3.96-3.445-2.866-6.892-1.824-.05.099-.114.211-.195.335z"/></mask><path fill-rule="evenodd" clip-rule="evenodd" d="M111.224 9.136C107.803 5.31 97.389-.668 83.071 6.008c-17.902 8.348-4.821 32.776 1.272 33.676 5.459.806 17.105.494 19.471-2.789 4.217-1.604 7.922-4.004 8.298-6.704.619-4.44-1.089-7.32-3.053-10.632a77.111 77.111 0 0 1-1.306-2.258c4.313-1.649 8.632-3.911 10.558-6.676 2.759-3.96-3.445-2.866-6.892-1.824-.05.099-.114.211-.195.335z" fill="#000"/><path d="m111.224 9.136-2.236 2 2.611 2.92 2.139-3.282-2.514-1.638zM83.071 6.008l1.268 2.719-1.268-2.72zm1.272 33.676.438-2.968-.438 2.968zm19.471-2.789-1.067-2.804-.841.32-.526.73 2.434 1.754zm8.298-6.704 2.971.414-2.971-.414zm-3.053-10.632 2.58-1.53-2.58 1.53zm-1.306-2.258-1.071-2.802-3.217 1.23 1.659 3.018 2.629-1.446zm10.558-6.676L115.85 8.91l2.461 1.715zM111.419 8.8l-.868-2.872-1.242.376-.577 1.161 2.687 1.335zm2.042-1.664C109.257 2.435 97.45-4.007 81.804 3.289l2.535 5.438c12.988-6.057 22.009-.543 24.649 2.409l4.473-4zM81.804 3.289c-5.181 2.416-8.308 6.119-9.78 10.4-1.44 4.186-1.215 8.67-.228 12.67.991 4.009 2.8 7.75 4.812 10.59 1.006 1.422 2.11 2.685 3.253 3.657 1.085.923 2.474 1.814 4.044 2.046l.876-5.936c.047.007-.306-.063-1.033-.68-.668-.57-1.446-1.427-2.243-2.553-1.596-2.253-3.08-5.31-3.884-8.564-.806-3.263-.876-6.508.077-9.279.92-2.674 2.871-5.155 6.641-6.913l-2.535-5.438zm2.1 39.363c2.999.442 7.523.565 11.632.156 2.058-.205 4.13-.555 5.911-1.119 1.651-.523 3.619-1.4 4.801-3.04l-4.868-3.508c.03-.04-.036.065-.359.252-.314.181-.769.38-1.386.576-1.239.393-2.863.686-4.694.869-3.67.365-7.698.242-10.16-.122l-.876 5.936zm20.976-2.953c2.269-.862 4.532-1.986 6.336-3.355 1.717-1.302 3.514-3.205 3.867-5.74l-5.942-.827c-.023.166-.267.813-1.551 1.787-1.196.907-2.894 1.786-4.843 2.527l2.133 5.608zm10.203-9.094c.779-5.584-1.496-9.292-3.444-12.576l-5.161 3.06c1.981 3.34 3.122 5.39 2.663 8.688l5.942.828zm-3.444-12.576a75.858 75.858 0 0 1-1.257-2.173l-5.258 2.89c.461.838.928 1.624 1.354 2.344l5.161-3.061zm4.211-9.119c-.616.884-1.77 1.88-3.468 2.9-1.66.997-3.645 1.903-5.7 2.69l2.143 5.603c2.257-.863 4.588-1.913 6.647-3.15 2.022-1.215 3.991-2.733 5.301-4.613l-4.923-3.43zm-3.563 2.762a24.45 24.45 0 0 1 2.591-.632c.929-.17 1.673-.234 2.147-.208.239.014.261.043.153.002-.113-.043-.576-.25-.907-.835-.353-.625-.278-1.183-.231-1.367.035-.138.045-.06-.19.278l4.923 3.43c.454-.652.874-1.406 1.084-2.239.222-.878.238-1.992-.362-3.055-.579-1.023-1.478-1.55-2.17-1.815-.686-.263-1.386-.357-1.966-.39-2.194-.122-5.033.552-6.808 1.088l1.736 5.743zm1.451-.898c.131-.202.257-.416.367-.638l-5.373-2.67.005-.01a.594.594 0 0 1-.027.043l5.028 3.275z" fill="#709D27" mask="url(#a)"/><path d="M92.949 23.084h-3.482c-.92 0-1.486-.944-1.188-1.764l4.67 1.764zm0 0-1.892 7.505a1.302 1.302 0 0 0 .622 1.477 1.226 1.226 0 0 0 1.566-.296l11.011-13.172c.677-.81.171-2.16-.961-2.16h-3.76l2.121-5.466c.32-.824-.245-1.791-1.178-1.791h-6.914c-.262 0-.517.084-.729.237l.293.405-.293-.405c-.211.153-.37.367-.459.612L88.28 21.32l4.67 1.764z" fill="#9CD1FF" stroke="#4B371F"/></svg>
